public/logos/primary-logo-text.svg

<svg xmlns="http://www.w3.org/2000/svg" width="868" height="250" fill="none"><path fill="url(#a)" d="M125 250a125 125 0 1 1 118.882-86.373L125 125v125Z"/><path fill="#000" d="M350.364 171h-30.137V77.91h31.091c9.121 0 16.955 1.863 23.5 5.59 6.546 3.697 11.561 9.015 15.046 15.954 3.515 6.91 5.272 15.198 5.272 24.864 0 9.697-1.772 18.03-5.318 25-3.515 6.97-8.606 12.334-15.273 16.091-6.666 3.727-14.727 5.591-24.181 5.591Zm-16.091-12.273h15.318c7.091 0 12.985-1.333 17.682-4 4.697-2.697 8.212-6.591 10.545-11.682 2.334-5.121 3.5-11.363 3.5-18.727 0-7.303-1.166-13.5-3.5-18.591-2.303-5.091-5.742-8.954-10.318-11.59-4.576-2.637-10.258-3.955-17.045-3.955h-16.182v68.545Zm97.557 13.818c-4.425 0-8.425-.818-12-2.454-3.576-1.667-6.41-4.076-8.5-7.227-2.061-3.152-3.091-7.016-3.091-11.591 0-3.94.757-7.182 2.272-9.728a16.782 16.782 0 0 1 6.137-6.045c2.575-1.485 5.454-2.606 8.636-3.364a86.006 86.006 0 0 1 9.727-1.727l10.182-1.182c2.606-.333 4.5-.863 5.682-1.591 1.182-.727 1.773-1.909 1.773-3.545v-.318c0-3.97-1.121-7.046-3.364-9.228-2.212-2.181-5.515-3.272-9.909-3.272-4.576 0-8.182 1.015-10.818 3.045-2.606 2-4.409 4.227-5.409 6.682l-12.773-2.909c1.515-4.243 3.727-7.667 6.636-10.273 2.94-2.636 6.319-4.545 10.137-5.727 3.818-1.212 7.833-1.818 12.045-1.818 2.788 0 5.743.333 8.864 1a25.944 25.944 0 0 1 8.818 3.545c2.758 1.727 5.015 4.197 6.773 7.409 1.757 3.182 2.636 7.318 2.636 12.409V171h-13.273v-9.545h-.545c-.879 1.757-2.197 3.484-3.955 5.181-1.757 1.697-4.015 3.106-6.772 4.228-2.758 1.121-6.061 1.681-9.909 1.681Zm2.954-10.909c3.758 0 6.97-.742 9.636-2.227 2.697-1.485 4.743-3.424 6.137-5.818 1.424-2.424 2.136-5.015 2.136-7.773v-9c-.485.485-1.424.94-2.818 1.364-1.364.394-2.924.742-4.682 1.045-1.757.273-3.47.531-5.136.773-1.667.212-3.061.394-4.182.545-2.636.334-5.045.894-7.227 1.682-2.152.788-3.879 1.925-5.182 3.409-1.273 1.455-1.909 3.394-1.909 5.819 0 3.363 1.242 5.909 3.727 7.636 2.485 1.697 5.652 2.545 9.5 2.545ZM485.477 171V77.91h13.591v34.59h.818c.788-1.455 1.925-3.136 3.409-5.045 1.485-1.91 3.546-3.576 6.182-5 2.637-1.455 6.121-2.182 10.455-2.182 5.636 0 10.666 1.424 15.091 4.272 4.424 2.849 7.894 6.955 10.409 12.319 2.545 5.363 3.818 11.818 3.818 19.363 0 7.546-1.258 14.015-3.773 19.409-2.515 5.364-5.969 9.5-10.363 12.409-4.394 2.879-9.409 4.319-15.046 4.319-4.242 0-7.712-.712-10.409-2.137-2.667-1.424-4.757-3.091-6.273-5-1.515-1.909-2.681-3.606-3.5-5.091h-1.136V171h-13.273Zm13.318-34.909c0 4.909.713 9.212 2.137 12.909 1.424 3.697 3.485 6.591 6.182 8.682 2.697 2.06 6 3.091 9.909 3.091 4.06 0 7.454-1.076 10.182-3.228 2.727-2.181 4.787-5.136 6.181-8.863 1.425-3.727 2.137-7.924 2.137-12.591 0-4.606-.697-8.743-2.091-12.409-1.364-3.667-3.424-6.561-6.182-8.682-2.727-2.121-6.136-3.182-10.227-3.182-3.94 0-7.273 1.015-10 3.046-2.697 2.03-4.743 4.863-6.137 8.5-1.394 3.636-2.091 7.878-2.091 12.727Z"/><path fill="url(#b)" d="M642.92 108.182h-14.181c-.546-3.03-1.561-5.697-3.046-8a22.39 22.39 0 0 0-5.454-5.864c-2.152-1.606-4.561-2.818-7.228-3.636-2.636-.818-5.439-1.228-8.409-1.228-5.363 0-10.166 1.349-14.409 4.046-4.212 2.697-7.545 6.652-10 11.864-2.424 5.212-3.636 11.575-3.636 19.091 0 7.575 1.212 13.969 3.636 19.181 2.455 5.212 5.803 9.152 10.046 11.819 4.242 2.666 9.015 4 14.318 4 2.939 0 5.727-.394 8.363-1.182 2.667-.818 5.076-2.015 7.228-3.591a22.017 22.017 0 0 0 5.454-5.773c1.515-2.303 2.561-4.939 3.137-7.909l14.181.045c-.757 4.576-2.227 8.788-4.409 12.637a34.865 34.865 0 0 1-8.318 9.909c-3.363 2.757-7.212 4.894-11.545 6.409-4.334 1.515-9.061 2.273-14.182 2.273-8.061 0-15.243-1.909-21.546-5.728-6.303-3.848-11.272-9.348-14.909-16.5-3.606-7.151-5.409-15.681-5.409-25.59 0-9.94 1.818-18.47 5.455-25.591 3.636-7.152 8.606-12.637 14.909-16.455 6.303-3.848 13.47-5.773 21.5-5.773 4.939 0 9.545.713 13.818 2.137 4.303 1.394 8.167 3.454 11.591 6.181 3.424 2.698 6.258 6 8.5 9.91 2.242 3.878 3.758 8.318 4.545 13.318Zm36.035 64.363c-4.425 0-8.425-.818-12-2.454-3.576-1.667-6.41-4.076-8.5-7.227-2.061-3.152-3.091-7.016-3.091-11.591 0-3.94.757-7.182 2.272-9.728a16.782 16.782 0 0 1 6.137-6.045c2.575-1.485 5.454-2.606 8.636-3.364a86.006 86.006 0 0 1 9.727-1.727l10.182-1.182c2.606-.333 4.5-.863 5.682-1.591 1.182-.727 1.773-1.909 1.773-3.545v-.318c0-3.97-1.121-7.046-3.364-9.228-2.212-2.181-5.515-3.272-9.909-3.272-4.576 0-8.182 1.015-10.818 3.045-2.606 2-4.409 4.227-5.409 6.682l-12.773-2.909c1.515-4.243 3.727-7.667 6.636-10.273 2.94-2.636 6.319-4.545 10.137-5.727 3.818-1.212 7.833-1.818 12.045-1.818 2.788 0 5.743.333 8.864 1a25.944 25.944 0 0 1 8.818 3.545c2.758 1.727 5.015 4.197 6.773 7.409 1.757 3.182 2.636 7.318 2.636 12.409V171h-13.273v-9.545h-.545c-.879 1.757-2.197 3.484-3.955 5.181-1.757 1.697-4.015 3.106-6.772 4.228-2.758 1.121-6.061 1.681-9.909 1.681Zm2.954-10.909c3.758 0 6.97-.742 9.636-2.227 2.697-1.485 4.743-3.424 6.137-5.818 1.424-2.424 2.136-5.015 2.136-7.773v-9c-.485.485-1.424.94-2.818 1.364-1.364.394-2.924.742-4.682 1.045-1.757.273-3.47.531-5.136.773-1.667.212-3.061.394-4.182.545-2.636.334-5.045.894-7.227 1.682-2.152.788-3.879 1.925-5.182 3.409-1.273 1.455-1.909 3.394-1.909 5.819 0 3.363 1.242 5.909 3.727 7.636 2.485 1.697 5.652 2.545 9.5 2.545Zm101.921-43.409-12.319 2.182c-.515-1.576-1.333-3.076-2.454-4.5-1.091-1.424-2.576-2.591-4.455-3.5-1.879-.909-4.227-1.364-7.045-1.364-3.849 0-7.061.864-9.637 2.591-2.575 1.697-3.863 3.894-3.863 6.591 0 2.334.863 4.212 2.591 5.637 1.727 1.424 4.515 2.591 8.363 3.5l11.091 2.545c6.425 1.485 11.212 3.773 14.364 6.864 3.151 3.091 4.727 7.106 4.727 12.045 0 4.182-1.212 7.909-3.636 11.182-2.394 3.242-5.743 5.788-10.046 7.636-4.272 1.849-9.227 2.773-14.863 2.773-7.818 0-14.197-1.667-19.137-5-4.939-3.364-7.969-8.136-9.091-14.318l13.137-2c.818 3.424 2.5 6.015 5.045 7.773 2.546 1.727 5.864 2.591 9.955 2.591 4.454 0 8.015-.925 10.682-2.773 2.666-1.879 4-4.167 4-6.864 0-2.182-.819-4.015-2.455-5.5-1.606-1.485-4.076-2.606-7.409-3.363l-11.818-2.591c-6.515-1.485-11.334-3.849-14.455-7.091-3.091-3.243-4.636-7.349-4.636-12.318 0-4.122 1.151-7.728 3.454-10.819 2.303-3.091 5.485-5.5 9.546-7.227 4.061-1.757 8.712-2.636 13.954-2.636 7.546 0 13.485 1.636 17.819 4.909 4.333 3.242 7.197 7.591 8.591 13.045Zm29.897 11.318V171h-13.591V77.91h13.409v34.635h.864c1.636-3.757 4.136-6.742 7.5-8.954 3.364-2.212 7.758-3.318 13.182-3.318 4.788 0 8.97.985 12.545 2.954 3.606 1.97 6.394 4.909 8.364 8.818 2 3.879 3 8.728 3 14.546V171h-13.591v-42.773c0-5.121-1.318-9.091-3.954-11.909-2.637-2.848-6.303-4.273-11-4.273-3.213 0-6.091.682-8.637 2.046-2.515 1.364-4.5 3.364-5.954 6-1.425 2.606-2.137 5.757-2.137 9.454Z"/><defs><linearGradient id="a" x1="0" x2="250" y1="0" y2="250" gradientUnits="userSpaceOnUse"><stop stop-color="#1D4ED8"/><stop offset="1" stop-color="#38BDF8"/></linearGradient><linearGradient id="b" x1="557.704" x2="571.73" y1="47" y2="225.306" gradientUnits="userSpaceOnUse"><stop stop-color="#1D4ED8"/><stop offset="1" stop-color="#38BDF8"/></linearGradient></defs></svg>

<svg width="938" height="250" viewBox="0 0 938 250" fill="none" xmlns="http://www.w3.org/2000/svg">
<path d="M125 250C98.6026 250 72.8828 241.643 51.5268 226.127C30.1709 210.611 14.2752 188.733 6.11793 163.627C-2.03931 138.522 -2.03931 111.478 6.11794 86.3729C14.2752 61.2674 30.1709 39.3889 51.5269 23.8729C72.8828 8.35686 98.6026 -5.42836e-06 125 0C151.397 5.42836e-06 177.117 8.35688 198.473 23.8729C219.829 39.3889 235.725 61.2675 243.882 86.3729C252.039 111.478 252.039 138.522 243.882 163.627L125 125L125 250Z" fill="url(#paint0_linear_6_5)"/>
<path d="M350.364 171H320.227V77.9091H351.318C360.439 77.9091 368.273 79.7727 374.818 83.5C381.364 87.197 386.379 92.5151 389.864 99.4545C393.379 106.364 395.136 114.652 395.136 124.318C395.136 134.015 393.364 142.348 389.818 149.318C386.303 156.288 381.212 161.652 374.545 165.409C367.879 169.136 359.818 171 350.364 171ZM334.273 158.727H349.591C356.682 158.727 362.576 157.394 367.273 154.727C371.97 152.03 375.485 148.136 377.818 143.045C380.152 137.924 381.318 131.682 381.318 124.318C381.318 117.015 380.152 110.818 377.818 105.727C375.515 100.636 372.076 96.7727 367.5 94.1364C362.924 91.5 357.242 90.1818 350.455 90.1818H334.273V158.727ZM431.83 172.545C427.405 172.545 423.405 171.727 419.83 170.091C416.254 168.424 413.42 166.015 411.33 162.864C409.269 159.712 408.239 155.848 408.239 151.273C408.239 147.333 408.996 144.091 410.511 141.545C412.027 139 414.072 136.985 416.648 135.5C419.223 134.015 422.102 132.894 425.284 132.136C428.466 131.379 431.708 130.803 435.011 130.409C439.193 129.924 442.587 129.53 445.193 129.227C447.799 128.894 449.693 128.364 450.875 127.636C452.057 126.909 452.648 125.727 452.648 124.091V123.773C452.648 119.803 451.527 116.727 449.284 114.545C447.072 112.364 443.769 111.273 439.375 111.273C434.799 111.273 431.193 112.288 428.557 114.318C425.951 116.318 424.148 118.545 423.148 121L410.375 118.091C411.89 113.848 414.102 110.424 417.011 107.818C419.951 105.182 423.33 103.273 427.148 102.091C430.966 100.879 434.981 100.273 439.193 100.273C441.981 100.273 444.936 100.606 448.057 101.273C451.208 101.909 454.148 103.091 456.875 104.818C459.633 106.545 461.89 109.015 463.648 112.227C465.405 115.409 466.284 119.545 466.284 124.636V171H453.011V161.455H452.466C451.587 163.212 450.269 164.939 448.511 166.636C446.754 168.333 444.496 169.742 441.739 170.864C438.981 171.985 435.678 172.545 431.83 172.545ZM434.784 161.636C438.542 161.636 441.754 160.894 444.42 159.409C447.117 157.924 449.163 155.985 450.557 153.591C451.981 151.167 452.693 148.576 452.693 145.818V136.818C452.208 137.303 451.269 137.758 449.875 138.182C448.511 138.576 446.951 138.924 445.193 139.227C443.436 139.5 441.723 139.758 440.057 140C438.39 140.212 436.996 140.394 435.875 140.545C433.239 140.879 430.83 141.439 428.648 142.227C426.496 143.015 424.769 144.152 423.466 145.636C422.193 147.091 421.557 149.03 421.557 151.455C421.557 154.818 422.799 157.364 425.284 159.091C427.769 160.788 430.936 161.636 434.784 161.636ZM485.477 171V77.9091H499.068V112.5H499.886C500.674 111.045 501.811 109.364 503.295 107.455C504.78 105.545 506.841 103.879 509.477 102.455C512.114 101 515.598 100.273 519.932 100.273C525.568 100.273 530.598 101.697 535.023 104.545C539.447 107.394 542.917 111.5 545.432 116.864C547.977 122.227 549.25 128.682 549.25 136.227C549.25 143.773 547.992 150.242 545.477 155.636C542.962 161 539.508 165.136 535.114 168.045C530.72 170.924 525.705 172.364 520.068 172.364C515.826 172.364 512.356 171.652 509.659 170.227C506.992 168.803 504.902 167.136 503.386 165.227C501.871 163.318 500.705 161.621 499.886 160.136H498.75V171H485.477ZM498.795 136.091C498.795 141 499.508 145.303 500.932 149C502.356 152.697 504.417 155.591 507.114 157.682C509.811 159.742 513.114 160.773 517.023 160.773C521.083 160.773 524.477 159.697 527.205 157.545C529.932 155.364 531.992 152.409 533.386 148.682C534.811 144.955 535.523 140.758 535.523 136.091C535.523 131.485 534.826 127.348 533.432 123.682C532.068 120.015 530.008 117.121 527.25 115C524.523 112.879 521.114 111.818 517.023 111.818C513.083 111.818 509.75 112.833 507.023 114.864C504.326 116.894 502.28 119.727 500.886 123.364C499.492 127 498.795 131.242 498.795 136.091Z" fill="black"/>
<path d="M642.92 108.182H628.739C628.193 105.152 627.178 102.485 625.693 100.182C624.208 97.8788 622.39 95.9242 620.239 94.3182C618.087 92.7121 615.678 91.5 613.011 90.6818C610.375 89.8636 607.572 89.4545 604.602 89.4545C599.239 89.4545 594.436 90.803 590.193 93.5C585.981 96.197 582.648 100.152 580.193 105.364C577.769 110.576 576.557 116.939 576.557 124.455C576.557 132.03 577.769 138.424 580.193 143.636C582.648 148.848 585.996 152.788 590.239 155.455C594.481 158.121 599.254 159.455 604.557 159.455C607.496 159.455 610.284 159.061 612.92 158.273C615.587 157.455 617.996 156.258 620.148 154.682C622.299 153.106 624.117 151.182 625.602 148.909C627.117 146.606 628.163 143.97 628.739 141L642.92 141.045C642.163 145.621 640.693 149.833 638.511 153.682C636.36 157.5 633.587 160.803 630.193 163.591C626.83 166.348 622.981 168.485 618.648 170C614.314 171.515 609.587 172.273 604.466 172.273C596.405 172.273 589.223 170.364 582.92 166.545C576.617 162.697 571.648 157.197 568.011 150.045C564.405 142.894 562.602 134.364 562.602 124.455C562.602 114.515 564.42 105.985 568.057 98.8636C571.693 91.7121 576.663 86.2273 582.966 82.4091C589.269 78.5606 596.436 76.6364 604.466 76.6364C609.405 76.6364 614.011 77.3485 618.284 78.7727C622.587 80.1667 626.451 82.2273 629.875 84.9545C633.299 87.6515 636.133 90.9545 638.375 94.8636C640.617 98.7424 642.133 103.182 642.92 108.182ZM678.955 172.545C674.53 172.545 670.53 171.727 666.955 170.091C663.379 168.424 660.545 166.015 658.455 162.864C656.394 159.712 655.364 155.848 655.364 151.273C655.364 147.333 656.121 144.091 657.636 141.545C659.152 139 661.197 136.985 663.773 135.5C666.348 134.015 669.227 132.894 672.409 132.136C675.591 131.379 678.833 130.803 682.136 130.409C686.318 129.924 689.712 129.53 692.318 129.227C694.924 128.894 696.818 128.364 698 127.636C699.182 126.909 699.773 125.727 699.773 124.091V123.773C699.773 119.803 698.652 116.727 696.409 114.545C694.197 112.364 690.894 111.273 686.5 111.273C681.924 111.273 678.318 112.288 675.682 114.318C673.076 116.318 671.273 118.545 670.273 121L657.5 118.091C659.015 113.848 661.227 110.424 664.136 107.818C667.076 105.182 670.455 103.273 674.273 102.091C678.091 100.879 682.106 100.273 686.318 100.273C689.106 100.273 692.061 100.606 695.182 101.273C698.333 101.909 701.273 103.091 704 104.818C706.758 106.545 709.015 109.015 710.773 112.227C712.53 115.409 713.409 119.545 713.409 124.636V171H700.136V161.455H699.591C698.712 163.212 697.394 164.939 695.636 166.636C693.879 168.333 691.621 169.742 688.864 170.864C686.106 171.985 682.803 172.545 678.955 172.545ZM681.909 161.636C685.667 161.636 688.879 160.894 691.545 159.409C694.242 157.924 696.288 155.985 697.682 153.591C699.106 151.167 699.818 148.576 699.818 145.818V136.818C699.333 137.303 698.394 137.758 697 138.182C695.636 138.576 694.076 138.924 692.318 139.227C690.561 139.5 688.848 139.758 687.182 140C685.515 140.212 684.121 140.394 683 140.545C680.364 140.879 677.955 141.439 675.773 142.227C673.621 143.015 671.894 144.152 670.591 145.636C669.318 147.091 668.682 149.03 668.682 151.455C668.682 154.818 669.924 157.364 672.409 159.091C674.894 160.788 678.061 161.636 681.909 161.636ZM783.83 118.227L771.511 120.409C770.996 118.833 770.178 117.333 769.057 115.909C767.966 114.485 766.481 113.318 764.602 112.409C762.723 111.5 760.375 111.045 757.557 111.045C753.708 111.045 750.496 111.909 747.92 113.636C745.345 115.333 744.057 117.53 744.057 120.227C744.057 122.561 744.92 124.439 746.648 125.864C748.375 127.288 751.163 128.455 755.011 129.364L766.102 131.909C772.527 133.394 777.314 135.682 780.466 138.773C783.617 141.864 785.193 145.879 785.193 150.818C785.193 155 783.981 158.727 781.557 162C779.163 165.242 775.814 167.788 771.511 169.636C767.239 171.485 762.284 172.409 756.648 172.409C748.83 172.409 742.451 170.742 737.511 167.409C732.572 164.045 729.542 159.273 728.42 153.091L741.557 151.091C742.375 154.515 744.057 157.106 746.602 158.864C749.148 160.591 752.466 161.455 756.557 161.455C761.011 161.455 764.572 160.53 767.239 158.682C769.905 156.803 771.239 154.515 771.239 151.818C771.239 149.636 770.42 147.803 768.784 146.318C767.178 144.833 764.708 143.712 761.375 142.955L749.557 140.364C743.042 138.879 738.223 136.515 735.102 133.273C732.011 130.03 730.466 125.924 730.466 120.955C730.466 116.833 731.617 113.227 733.92 110.136C736.223 107.045 739.405 104.636 743.466 102.909C747.527 101.152 752.178 100.273 757.42 100.273C764.966 100.273 770.905 101.909 775.239 105.182C779.572 108.424 782.436 112.773 783.83 118.227ZM813.727 129.545V171H800.136V77.9091H813.545V112.545H814.409C816.045 108.788 818.545 105.803 821.909 103.591C825.273 101.379 829.667 100.273 835.091 100.273C839.879 100.273 844.061 101.258 847.636 103.227C851.242 105.197 854.03 108.136 856 112.045C858 115.924 859 120.773 859 126.591V171H845.409V128.227C845.409 123.106 844.091 119.136 841.455 116.318C838.818 113.47 835.152 112.045 830.455 112.045C827.242 112.045 824.364 112.727 821.818 114.091C819.303 115.455 817.318 117.455 815.864 120.091C814.439 122.697 813.727 125.848 813.727 129.545ZM883.227 197.182C881.197 197.182 879.348 197.015 877.682 196.682C876.015 196.379 874.773 196.045 873.955 195.682L877.227 184.545C879.712 185.212 881.924 185.5 883.864 185.409C885.803 185.318 887.515 184.591 889 183.227C890.515 181.864 891.848 179.636 893 176.545L894.682 171.909L869.136 101.182H883.682L901.364 155.364H902.091L919.773 101.182H934.364L905.591 180.318C904.258 183.955 902.561 187.03 900.5 189.545C898.439 192.091 895.985 194 893.136 195.273C890.288 196.545 886.985 197.182 883.227 197.182Z" fill="url(#paint1_linear_6_5)"/>
<defs>
<linearGradient id="paint0_linear_6_5" x1="0" y1="0" x2="250" y2="250" gradientUnits="userSpaceOnUse">
<stop stop-color="#1D4ED8"/>
<stop offset="1" stop-color="#38BDF8"/>
</linearGradient>
<linearGradient id="paint1_linear_6_5" x1="588.778" y1="47" x2="601.257" y2="225.537" gradientUnits="userSpaceOnUse">
<stop stop-color="#1D4ED8"/>
<stop offset="1" stop-color="#38BDF8"/>
</linearGradient>
</defs>
</svg>
